src/pos-icons/chevron-double-left.svg

<svg height="24" viewBox="0 0 24 24" width="24" xmlns="http://www.w3.org/2000/svg"><path d="m18.41 7.41-1.41-1.41-6 6 6 6 1.41-1.41-4.58-4.59zm-6 0-1.41-1.41-6 6 6 6 1.41-1.41-4.58-4.59z"/></svg>

<?xml version="1.0" encoding="UTF-8"?><!DOCTYPE svg PUBLIC "-//W3C//DTD SVG 1.1//EN" "http://www.w3.org/Graphics/SVG/1.1/DTD/svg11.dtd"><svg xmlns="http://www.w3.org/2000/svg" xmlns:xlink="http://www.w3.org/1999/xlink" version="1.1" id="mdi-chevron-double-left" width="24" height="24" viewBox="0 0 24 24"><path d="M18.41,7.41L17,6L11,12L17,18L18.41,16.59L13.83,12L18.41,7.41M12.41,7.41L11,6L5,12L11,18L12.41,16.59L7.83,12L12.41,7.41Z" /></svg>
